X: 1
T: Reel de Montebello
C: by Richard For\^et
R: reel
Z: 2012 John Chambers <jc:trillian.mit.edu>
M: C|
L: 1/8
K: Am
|:\
"Am"EABc ecBA | "Fmaj7"FABc ecBA | "G"GABc dBGB | "Em7"edBA GE/F/ ED |
"Am"EABc ecBA | "Fmaj7"FABc AcBA | "G"GABc "Em7"dBGE | EDEG [1 "Am"A3A :|[2 "Am"A2ce ||
|:\
"Am"aece gecA | "G"GABc dcBd | gddf ddgd | "Am"edef (3efe ce |
"Am"aece gecA | "G"GABc dcBd | gedg edBd | "Am"cBcd [1 cAce :|[2 cBAG |]

%%sep 1 1 500
